X:50
T:Blind Fidder, The, or more Noise than Work
M:6/4
L:1/8
B:Thompson's Compleat Collection of 200 Favourite Country Dances, vol. 3 (London, 1773)
Z:Transcribed and edited by Flynn Titford-Mock, 2007
Z:abc's:AK/Fiddler's Companion
K:Bb
"tr"B4 dBfd b2f2 | "tr"B4 dBdB c2F2 | "tr"B4 dBfd b2f2 | gbag fedc (B2 B2) :|
|: "tr"(F2 F2) cAcA cAcA | "tr"(F2 F2) dBdB dBdB | "tr"(F2 F2) cAcA cAcA | dBec gfed {d}(c2c2) |
"tr"B4 dBfd b2f2 | "tr"B4 dBdB c2F2 | "tr"B4 dBfd b2f2 | gbag fedc B4 :|

